icon/pk/arrow-keys.svg

<svg width="48" height="48" fill="none" xmlns="http://www.w3.org/2000/svg"><path d="M14 4h20v20H14V4ZM4 24h20v20H4V24ZM24 24h20v20H24V24Z" fill="#2F88FF"/><path d="M24 24H4v20h20V24Zm0 0v20-20Zm0 0h20v20H24V24ZM14 4h20v20H14V4Z" stroke="#000" stroke-width="4" stroke-linecap="round" stroke-linejoin="round"/><path d="M24 10v8M20 14l4-4 4 4M10 34h8M14 38l-4-4 4-4M38 34h-8M34 30l4 4-4 4" stroke="#fff" stroke-width="4" stroke-linecap="round" stroke-linejoin="round"/></svg>

<svg viewBox="0 0 48 48" fill="none" xmlns="http://www.w3.org/2000/svg" height="1em" width="1em">
  <path d="M14 4H34V24H14V4Z" fill="#2F88FF"/>
  <path d="M4 24H24V44H4V24Z" fill="#2F88FF"/>
  <path d="M24 24H44V44H24V24Z" fill="#2F88FF"/>
  <path d="M24 24H4V44H24V24ZM24 24V44V24ZM24 24H44V44H24V24ZM14 4H34V24H14V4Z" stroke="black" stroke-width="4" stroke-linecap="round" stroke-linejoin="round"/>
  <path d="M24 10V18" stroke="white" stroke-width="4" stroke-linecap="round" stroke-linejoin="round"/>
  <path d="M20 14L24 10L28 14" stroke="white" stroke-width="4" stroke-linecap="round" stroke-linejoin="round"/>
  <path d="M10 34H18" stroke="white" stroke-width="4" stroke-linecap="round" stroke-linejoin="round"/>
  <path d="M14 38L10 34L14 30" stroke="white" stroke-width="4" stroke-linecap="round" stroke-linejoin="round"/>
  <path d="M38 34H30" stroke="white" stroke-width="4" stroke-linecap="round" stroke-linejoin="round"/>
  <path d="M34 30L38 34L34 38" stroke="white" stroke-width="4" stroke-linecap="round" stroke-linejoin="round"/>
</svg>
